X:1
T:Huddersfield, 77.75
T:Huddersfield, 77.75
T:Walter Parratt (1841-1924)
T:Public Domain Courtesy of the Cyber Hymnal™
C:Walter Parratt (1841-1924)
Z:Public Domain
Z:Courtesy of the Cyber Hymnal™
%%score ( 1 2 ) ( 3 4 )
L:1/8
Q:1/4=112
M:4/4
K:D
V:1 treble 
V:2 treble 
V:3 bass 
V:4 bass 
V:1
 [DF]2 [EA]2 | [DG]2 [CF]2 [B,E]2 [CF]2 | (D2 [CE]2) !breath![DF]2 [DG]2 | %3
 [FA]2 [F^A]2 [FB]2 [^Ec]2 | [Fc]4 [Dd]2 [Ec]2 | [FB]2 [B,A]2 [EG]2 [^DF]2 | %6
 [EB]4 !breath!D2 [DE]2 | ([DF]2 A4) [CA]2 | [DA]4 |] %9
V:2
 x4 | x8 | D2 x6 | x8 | x8 | x8 | x4 D2 x2 | x2 (A,2 B,2) x2 | x4 |] %9
V:3
 [D,A,]2 [C,A,]2 | [B,,B,]2 [A,,F,]2 [G,,G,]2 [A,,G,]2 | %2
 ([B,,F,]2 [A,,A,]2) !breath![D,A,]2 [G,B,]2 | [F,C]2 [E,C]2 [D,B,]2 [C,^G,]2 | %4
 [F,^A,]4 [B,,F,]2 [C,A,]2 | [D,B,]2 [^D,B,]2 [E,B,]2 [F,A,]2 | G,4 !breath![G,,B,]2 [G,,G,]2 | %7
 (F,4 G,2) [A,,E,]2 | [D,F,]4 |] %9
V:4
 x4 | x8 | x8 | x8 | x8 | x8 | G,4 x4 | A,,6 x2 | x4 |] %9

